X: 15943
T: Granny In The Corner
R: reel
M: 4/4
K: Dmixolydian
GE|:D3E G3B|AGAB G2AB|c2cB cBAG|E2ED EGGE|
D3E G3B|AGAB G2AB|cded cAGE|1 D3E D2GE:|2 D3E D2Bc||
|:dgdB c2cA|B2BA GABc|dBcA BAGE|D3E D2Bc|
dgdB c2cA|B2BA GABc|d2c2B2E2|1 D6Bc:|2 D6||

